**kern	**kern	**dynam
*part1	*part1	*part1
*staff2	*staff1	*
*I"Piano	*	*
*clefF4	*clefG2	*
*k[b-e-a-]	*k[b-e-a-]	*
=1	=1	=1
4FFF' 4FF	4A-' 4c 4d	.
8r	8r	.
=	=	=
*^	*	*
!	!	!LO:TX:a:i:t=ritard.	!
4F 4G	4GGG' 4GG	4Bn' 4d	.
8r	8ryy	8r	.
=	=	=	=
4E- 4G	4CC' 4C	4c'	.
8r	8ryy	8r	.
*v	*v	*	*
=	=	=
*	*^	*
(4.E- [4.c	8r	(4.g	sf
.	8r	.	.
.	[8cc	.	.
=	=	=	=
4.F 4.c_	4cc]	4.a-	.
.	[8cc	.	.
=	=	=	=
4.E- 4.c_	8ccL]	4.g	.
.	8dd	.	.
.	8ccJ	.	.
=	=	=	=
4.D) 4.c]	(4ff^	4.f)	.
.	[8cc)	.	.
=	=	=	=
(4.E- [4.c	4cc]	(4.g	sf
.	[8cc	.	.
=	=	=	=
4.F 4.c_	4cc]	4.a-	.
.	[8cc	.	.
=	=	=	=
4.E- 4.c_	8ccL]	4.g	.
.	8dd	.	.
.	8ccJ	.	.
=	=	=	=
4.D) 4.c]	(4aa-^	4.f)	.
.	[8cc)	.	.
*	*v	*v	*
=	=	=
*-	*-	*-
!!!system-decoration: {(s1,s2)}
